X:1
T:Summer Wind
T:Summer Wind
C:Henry Mayer
Z:All Rights Reserved
L:1/8
M:4/4
K:Eb
V:1 treble nm="Piano" snm="Pno."
%%MIDI program 0
V:1
 z4 z3 B, |"Eb" FG G4 z B, | FG G4 z B, |"Bb7" G2 AF- F4 | z4 z2 z B, |"Bb7" GA A4 z B, | %6
w: The|sum- mer wind came|blow- ing in a-|cross the sea, *|It|lin- gered there to|
 GA A4 z A |"Eb" A2 BG- G4 | z4 z2 z E |"Eb7" =AB B4 z E | =AB B4 z c |"Ab" B2 _A2 A3 G | %12
w: touch your hair and|walk with me. *|All|sum- mer long we|sang a song and|strolled the gold- en|
"Abm6" F8 |"Eb" z2 G2"Gm" B2"Fm" A2 |"Bb11" F6"Bb7" z F |"Eb" FE E6 |[K:F]"C7" z4 z3 C | %17
w: sand,|Two sweet- hearts|and the|sum- mer wind.|Like|
"F" GA A4 z C | GA A4 z C |"C7" A2 BG- G4 | z4 z2 z C |"C7" AB B4 z C | AB B4 z B |"F" B2 cA- A4 | %24
w: paint- ed kites the|days and night went|fly- ing by, _|The|world was new be-|neath a blue um-|brel- la sky. _|
 z4 z2 z F |"F7" =Bc c4 z F | =Bc c4 z d |"Bb" c2 B2 B3 A |"Bbm6" G8 |"F" z2 A2"Am" c2"Gm" B2 | %30
w: Then|soft- er than a|pi- per man one|day it called to|you,|I lost you|
"C11""C7" G6 z G |"F" GF F6 |[K:G]"D7" z4 z3 D |"G" AB B4 z D | AB B4 z D |"D7" B2 cA- A4 | %36
w: to the|sum- mer wind.|The|aut- umn wind, the|win- ter winds have|come and gone, _|
"D7" z4 z2 z D | Bc c4 z D | Bc c4 z c |"G" c2 dB- B4 |"G" z4 z2 z G |"G7" ^cd d4 z G | %42
w: And|still the days, the|lone- ly days go|on and on. _|And|guess who sighs his|
 ^cd d4 z e |"C" d2 c2 c3 B |"Cm6" A8 |"G" z2 B2"Bm" d2"Am" c2 |"D11""D7" A6 z A | %47
w: lul- la- bies through|nights that nev- er|end,|My fick- le|friend, the|
"G9" AG G3- G2 F |"G9" AG G3- G2 F |"G9" AG"G" G4 z z |] %50
w: sum- mer wind, _ the|sum- mer wind, _ the|sum- mer *|

